X: 13741
T: Forest-in-Teesdale
R: slip jig
M: 9/8
K: Gmajor
|:G3 G2A BAG|A2G ABd B2d|e2g edB d2e|g2B BAG ABA|
G3 G2A BAG|A2G ABd B2d|e2g ede g2B|A2B A2G G3:|
|:g2b agf g2e|d2g edB d3|e2a a2b a2g|e2a a2b agf|
g2b agf g2e|d2g edB d3|e2g ede g2B|A2B A2G G3:|

